!!!SOCIAL_FUNCTION:	songs to insure success
!!!PDT:	1909
!!!OTL: No_70_Song_for_Securing_a_Good_Supply_of_Maple_Sugar.krn
!!!REG: Great_Lakes
!!!LANG: Non-Tone
!!!LING_GROUP: Algonquin
**kern
*staff1
*clefF4
*k[b-e-a-d-g-]
*M2/2
8d-\L
8d-\J
4d-\
8d-\L
8d-\J
=1||
*M3/2
2c\
2c\
8B-\L
8B-\
(8.B-\
16A-\Jk)
=2||
*M2/2
4A-\
8B-\L
8B-\J
4B-\
8.B-\L
16A-\Jk
=3||
*M3/2
2A-\
2A-\
8F\L
8F\
(8.F\
16E-\Jk)
=4||
*M2/2
4E-\
8A-\L
8A-\J
4A-\
8A-\L
8G-\J
=5||
*M3/2
2G-\
2G-\
8E-\L
8E-\
(8.E-\
16D-\Jk)
=6||
*M2/2
4D-\
8E-\L
8E-\J
4E-\
8.E-\L
16D-\Jk
=7||
*M3/2
2D-\
2D-\
8C/L
8C/J
4C/
=8||
*M2/2
4C/
8D-\L
8D-\J
4D-\
8.E-\L
16D-\Jk
=9||
*M3/2
2D-\
2D-\
8D-\L
8D-\
8.D-\
16C\Jk
=10||
*M2/2
4D-\
8B-\L
8B-\J
4B-\
8.B-\L
16B-\Jk
=11||
*M3/2
2A-\
2A-\
8F\L
8F\
8F\
8E-\J
=12||
*M2/2
4E-\
8A-\L
8A-\J
4A-\
8A-\L
8G-\J
=13||
*M3/2
2G-\
2G-\
8E-\L
8E-\
8.E-\
16D-\Jk
=14||
*M2/2
4D-\
8E-\L
8E-\J
4E-\
8.E-\L
16D-\Jk
=15||
*M3/2
2D-\
2D-\
8C/L
8C/J
4C/
=16||
*M2/2
4D-\
8D-\L
8D-\J
4D-\
8.E-\L
16D-\Jk
=17||
*M3/2
2D-\
2D-\
8D-\L
8D-\J
4D-\
=18||
*M3/4
2.D-\
==
*-
